img/--1.svg

<svg fill="none" height="16" viewBox="0 0 15 16" width="15" xmlns="http://www.w3.org/2000/svg"><path d="m7.24 15.2295c-1.01333 0-1.96667-.18-2.86-.54-.88-.3733-1.64667-.8866-2.3-1.54-.65333-.6533-1.166667-1.42-1.54-2.3-.36-.8933-.54-1.84664-.54-2.85997 0-1.02667.18-1.98.54-2.86.373333-.88.88667-1.64 1.54-2.28.65333-.65333 1.42-1.16 2.3-1.52.88-.373333 1.83333-.559999 2.86-.559999s1.98.186666 2.86.559999c.88.36 1.64.86667 2.28 1.52.6533.64 1.16 1.4 1.52 2.28.3733.88.56 1.83333.56 2.86 0 1.01333-.1867 1.96667-.56 2.85997-.36.88-.8667 1.6467-1.52 2.3-.64.6534-1.4 1.1667-2.28 1.54-.88.36-1.83333.54-2.86.54zm.3-2.92c-1.30667 0-2.34-.3933-3.1-1.18-.76-.8-1.14-1.85997-1.14-3.17997s.38-2.36 1.14-3.12 1.79333-1.14 3.1-1.14c.53333 0 1.06.09334 1.58.28.53333.17334.9667.42 1.3.74l-.56 1.24c-.32-.29333-.67333-.50667-1.06-.64-.38667-.14667-.76667-.22-1.14-.22-.81333 0-1.45333.25333-1.92.76-.45333.50667-.68 1.21334-.68 2.12 0 .89334.22667 1.60667.68 2.13997.46667.52 1.10667.78 1.92.78.37333 0 .75333-.0666 1.14-.2.38667-.1466.74-.3666 1.06-.66l.56 1.26c-.3333.3067-.76667.5534-1.3.74-.53333.1867-1.06.28-1.58.28zm-.3 1.96c.89333 0 1.71333-.1533 2.46-.46.76-.32 1.42-.7666 1.98-1.34.56-.5733.9933-1.24 1.3-2 .32-.75997.48-1.58664.48-2.47997s-.16-1.72-.48-2.48c-.3067-.76-.74-1.42-1.3-1.98-.56-.57333-1.22-1.01333-1.98-1.32-.74667-.32-1.56667-.48-2.46-.48s-1.72.16-2.48.48c-.76.30667-1.42.74667-1.98 1.32-.56.56-1 1.22-1.32 1.98-.30667.76-.46 1.58667-.46 2.48s.15333 1.72.46 2.47997c.32.76.76 1.4267 1.32 2 .56.5734 1.22 1.02 1.98 1.34.76.3067 1.58667.46 2.48.46z" fill="#fff"/></svg>

<svg width="15" height="16" viewBox="0 0 15 16" fill="none" xmlns="http://www.w3.org/2000/svg">
<path d="M7.24 15.2295C6.22667 15.2295 5.27333 15.0495 4.38 14.6895C3.5 14.3162 2.73333 13.8029 2.08 13.1495C1.42667 12.4962 0.913333 11.7295 0.54 10.8495C0.18 9.9562 0 9.00286 0 7.98953C0 6.96286 0.18 6.00953 0.54 5.12953C0.913333 4.24953 1.42667 3.48953 2.08 2.84953C2.73333 2.1962 3.5 1.68953 4.38 1.32953C5.26 0.956197 6.21333 0.769531 7.24 0.769531C8.26667 0.769531 9.22 0.956197 10.1 1.32953C10.98 1.68953 11.74 2.1962 12.38 2.84953C13.0333 3.48953 13.54 4.24953 13.9 5.12953C14.2733 6.00953 14.46 6.96286 14.46 7.98953C14.46 9.00286 14.2733 9.9562 13.9 10.8495C13.54 11.7295 13.0333 12.4962 12.38 13.1495C11.74 13.8029 10.98 14.3162 10.1 14.6895C9.22 15.0495 8.26667 15.2295 7.24 15.2295ZM7.54 12.3095C6.23333 12.3095 5.2 11.9162 4.44 11.1295C3.68 10.3295 3.3 9.26953 3.3 7.94953C3.3 6.62953 3.68 5.58953 4.44 4.82953C5.2 4.06953 6.23333 3.68953 7.54 3.68953C8.07333 3.68953 8.6 3.78287 9.12 3.96953C9.65333 4.14287 10.0867 4.38953 10.42 4.70953L9.86 5.94953C9.54 5.6562 9.18667 5.44286 8.8 5.30953C8.41333 5.16286 8.03333 5.08953 7.66 5.08953C6.84667 5.08953 6.20667 5.34286 5.74 5.84953C5.28667 6.3562 5.06 7.06287 5.06 7.96953C5.06 8.86287 5.28667 9.5762 5.74 10.1095C6.20667 10.6295 6.84667 10.8895 7.66 10.8895C8.03333 10.8895 8.41333 10.8229 8.8 10.6895C9.18667 10.5429 9.54 10.3229 9.86 10.0295L10.42 11.2895C10.0867 11.5962 9.65333 11.8429 9.12 12.0295C8.58667 12.2162 8.06 12.3095 7.54 12.3095ZM7.24 14.2695C8.13333 14.2695 8.95333 14.1162 9.7 13.8095C10.46 13.4895 11.12 13.0429 11.68 12.4695C12.24 11.8962 12.6733 11.2295 12.98 10.4695C13.3 9.70953 13.46 8.88286 13.46 7.98953C13.46 7.0962 13.3 6.26953 12.98 5.50953C12.6733 4.74953 12.24 4.08953 11.68 3.52953C11.12 2.9562 10.46 2.5162 9.7 2.20953C8.95333 1.88953 8.13333 1.72953 7.24 1.72953C6.34667 1.72953 5.52 1.88953 4.76 2.20953C4 2.5162 3.34 2.9562 2.78 3.52953C2.22 4.08953 1.78 4.74953 1.46 5.50953C1.15333 6.26953 1 7.0962 1 7.98953C1 8.88286 1.15333 9.70953 1.46 10.4695C1.78 11.2295 2.22 11.8962 2.78 12.4695C3.34 13.0429 4 13.4895 4.76 13.8095C5.52 14.1162 6.34667 14.2695 7.24 14.2695Z" fill="white"/>
</svg>
